icons/copilot-error-16.svg

<svg width="16" height="16" viewBox="0 0 16 16" fill="none" xmlns="http://www.w3.org/2000/svg">
<g clip-path="url(#clip0_71_2314)">
<path fill-rule="evenodd" clip-rule="evenodd" d="M7.86079 1.76951C7.91028 1.82253 7.95663 1.8773 8 1.93369C8.04337 1.8773 8.08972 1.82253 8.13921 1.76951C8.82116 1.03885 9.87702 0.870609 11.0828 1.00459C12.3131 1.14128 13.2283 1.53235 13.8072 2.26517C14.3725 2.98069 14.5 3.87928 14.5 4.75C14.5 5.32203 14.447 5.89713 14.2459 6.40507L14.4135 7.24322L14.4798 7.27639C15.4115 7.74222 16 8.69445 16 9.73607L16 11C16 11.2396 15.9143 11.4383 15.844 11.5671C15.8206 11.61 15.7954 11.6515 15.769 11.6916L13 9.68808V7.82426L12.9769 7.70875C12.4867 7.91839 11.9022 8 11.25 8C11.0304 8 10.8194 7.98798 10.6171 7.96389L6.82446 5.2196C6.90611 4.98718 6.967 4.71732 7.00579 4.40697C7.12274 3.47136 6.96805 3.01139 6.76421 2.79299C6.57116 2.58615 6.12702 2.37939 5.08282 2.49541C4.37638 2.57391 3.93868 2.73755 3.65876 2.92897L2.40779 2.0238C2.9883 1.44504 3.82966 1.12542 4.91718 1.00459C6.12298 0.870609 7.17884 1.03885 7.86079 1.76951ZM9.23579 2.79299C9.42884 2.58615 9.87298 2.37939 10.9172 2.49541C11.9369 2.60872 12.3967 2.89947 12.6303 3.19506C12.8775 3.50794 13 3.98435 13 4.75C13 5.54231 12.871 5.92077 12.6918 6.12041C12.5295 6.30122 12.1723 6.5 11.25 6.5C10.3963 6.5 9.91097 6.2644 9.61189 5.95907C9.29651 5.63711 9.08493 5.13277 8.99421 4.40697C8.87726 3.47136 9.03195 3.01139 9.23579 2.79299Z" fill="black"/>
<path fill-rule="evenodd" clip-rule="evenodd" d="M0.864557 2.75864C0.595433 2.71728 0.313217 2.82442 0.142537 3.06012C-0.100404 3.39561 -0.0253782 3.86452 0.310111 4.10746L1.50284 4.97116C1.51611 5.46914 1.57888 5.96258 1.75413 6.40506L1.5865 7.24322L1.52017 7.27639C0.588507 7.74222 8.25094e-09 8.69445 8.25094e-09 9.73607L1.9156e-06 11C8.25094e-09 11.2396 0.0857453 11.4383 0.156031 11.5671C0.230849 11.7043 0.3249 11.8284 0.414932 11.9334C0.595113 12.1436 0.819 12.3463 1.01986 12.5137C1.2249 12.6845 1.42716 12.8361 1.57651 12.9439C1.65169 12.9982 1.71466 13.0423 1.75941 13.0732C1.7818 13.0887 1.79971 13.1009 1.81237 13.1095L1.82736 13.1196L1.83316 13.1236L1.86101 13.1425C1.88437 13.1581 1.91725 13.1799 1.95925 13.2067C2.0432 13.2605 2.16373 13.3351 2.31739 13.4235C2.62435 13.6001 3.06559 13.8331 3.61334 14.0654C4.70442 14.5283 6.24396 15 8 15C9.75604 15 11.2956 14.5283 12.3867 14.0654C12.7818 13.8978 13.1215 13.7299 13.3954 13.583L14.8101 14.6075C15.1456 14.8504 15.6145 14.7754 15.8574 14.4399C16.047 14.1781 16.043 13.835 15.8726 13.5815C15.8074 13.5581 15.7443 13.5253 15.6853 13.4826L0.864557 2.75864ZM4.75 8C5.04722 8 5.32876 7.97798 5.5941 7.9338L12.0215 12.5881C11.9504 12.6201 11.8768 12.6523 11.8008 12.6846C10.8294 13.0967 9.49396 13.5 8 13.5C6.50604 13.5 5.17058 13.0967 4.19916 12.6846C3.71567 12.4794 3.32878 12.2749 3.06543 12.1234C3.04268 12.1103 3.02086 12.0976 3 12.0853V7.82426L3.0231 7.70875C3.51325 7.91839 4.09776 8 4.75 8Z" fill="black"/>
</g>
<defs>
<clipPath id="clip0_71_2314">
<rect width="16" height="16" fill="white"/>
</clipPath>
</defs>
</svg>

<svg xmlns="http://www.w3.org/2000/svg" width="16" height="16" viewBox="0 0 16 16"><path fill-rule="evenodd" d="M7.86 1.77c.05.053.097.107.14.164.043-.057.09-.111.14-.164.681-.731 1.737-.9 2.943-.765 1.23.136 2.145.527 2.724 1.26.566.716.693 1.614.693 2.485 0 .572-.053 1.147-.254 1.655l.168.838.066.033A2.75 2.75 0 0116 9.736V11c0 .24-.086.438-.156.567a1.755 1.755 0 01-.075.125L13 9.688V7.824l-.023-.115c-.49.21-1.075.291-1.727.291-.22 0-.43-.012-.633-.036L6.824 5.22c.082-.233.143-.503.182-.813.117-.936-.038-1.396-.242-1.614-.193-.207-.637-.414-1.681-.298-.707.079-1.144.243-1.424.434l-1.251-.905c.58-.579 1.422-.899 2.51-1.02 1.205-.133 2.26.035 2.943.766zm1.376 1.023c.193-.207.637-.414 1.681-.298 1.02.114 1.48.404 1.713.7.247.313.37.79.37 1.555 0 .792-.129 1.17-.308 1.37-.162.181-.52.38-1.442.38-.854 0-1.339-.236-1.638-.54-.315-.323-.527-.827-.618-1.553-.117-.936.038-1.396.242-1.614zM.865 2.759A.75.75 0 00.31 4.107l1.193.864c.013.498.076.992.251 1.434l-.167.838-.067.033A2.75 2.75 0 000 9.736V11c0 .24.086.438.156.567.075.137.169.261.259.366.18.21.404.413.605.58a10.368 10.368 0 00.792.597l.015.01.006.004.028.018.098.065a12.06 12.06 0 001.654.859C4.704 14.527 6.244 15 8 15c1.756 0 3.296-.472 4.387-.935.395-.167.734-.335 1.008-.482l1.415 1.024a.75.75 0 001.063-1.025.753.753 0 01-.188-.1L.865 2.76zM4.75 8c.297 0 .579-.022.844-.066l6.427 4.654c-.07.032-.144.064-.22.097-.972.412-2.307.815-3.801.815-1.494 0-2.83-.403-3.8-.815a10.594 10.594 0 01-1.2-.6v-4.26l.023-.116c.49.21 1.075.291 1.727.291z"/></svg>
